X:16
T:Mrs. MacLeod of Raasay
N: page A51
N: heptatonic
M:4/4
L:1/8
R:Reel
K:A
ucA|"A"v.A2a2"D"fefa|"A"c/c/c cB c2 cB|.A2a2"D"fefa|"E"B/B/B BA BdcB|
"A"A2a2"D"fefa|c/c/c cB c2 ce|"D"f2 fg fefg|afec "E"Bd:|
|:cB|"A"ABcd  eccA|c/c/c  cB c2 cB|ABcd  eccA|"E"B/B/B BA BdcB|
"A"ABcd eccA|c/c/c cB c2 ce|"D"f2 fg fefg|afec "E"B2:|

